X: 1
T: March Of The Crows, The
M: 4/4
L: 1/8
R: reel
K: Amin
(cB)|:&quot;Ami&quot;ABcdc2(cB)|ABcdc2(cB)|&quot;G&quot;ABAG &quot;Emi&quot;E2(cB)|&quot;G&quot;ABAG &quot;Emi&quot;E2(cB)|
&quot;Ami&quot;ABcdc2(cB)|ABcdc2(cB)|&quot;G&quot;cABc &quot;Em&quot;dcAG|1&quot;G&quot;EGGE &quot;Dsus&quot;D4:|[2&quot;G&quot;EGGE &quot;Dsus&quot;D4||
&quot;Ami&quot;AccA AccA|AccA &quot;G&quot; B4|&quot;Ami&quot;AccA AccA|Aece&quot;Emi&quot;d4|
&quot;Ami&quot;AccA AccA|AccA &quot;G&quot;B4|&quot;Ami&quot;AccA AccA|Aece&quot;Emi&quot;d4 ||
